X: 6673
T: Celia's
R: jig
M: 6/8
K: Dmajor
B2B BAF|A2A AFE|DEF A2F|EDB, A,2A|
B2B BAF|A2A AFA|BAF AFD|1 EDB, DFA:|2 EDB, D2A,||
DEF EDB,|DEF AFD|B2B BAF|ABd e2f|
d2A BAd|AFD EFA|B2F AFD|EDB, D2F|
E3 EDB,|DEF AFD|B2B BAF|ABd e2f|
d2A BAd|AFD EFA|B2F AFD|EDB, D2A||

